X:174
T: WIR HABEN IM FELDE GESTANDEN
N: E1316
O: Europa, Mitteleuropa, Deutschland, Schlesien, Neisse, Waltdorf
R: Staende -, Soldaten -, Kriegs - Lied
M: 4/4
L: 1/8
K: F
C2 | F2FGAGAB | c4A2
c2 | d2c2BdcB | A4G2
FG | A2cBA2G2 | F4
G4 | A2cBA2c2 | A6

